img/eximchain/thumb-dark.svg

<svg fill="none" height="394" viewBox="0 0 537 394" width="537" xmlns="http://www.w3.org/2000/svg"><path d="m0 0h537v393.345h-537z" fill="#282a29"/><path clip-rule="evenodd" d="m280.692 171c-15.603 0-24.516 11.009-24.516 26.425 0 15.442 8.89 26.429 24.481 26.425 12.641 0 19.327-7.338 20.81-16.151l-.744-.731h-5.942l-.744.731c-1.483 5.142-5.198 9.544-13.367 9.544-11.145 0-17.087-8.074-17.087-19.818s5.942-19.818 17.087-19.818c7.425 0 11.884 3.667 13.367 8.809l.744.735h5.978l.744-.735c-1.497-8.809-8.927-15.416-20.811-15.416zm-176.064 52.124h-37.8841l-.7439-.736v-49.922l.7439-.731h37.8841l.744.735v9.539l-.744.735h-24.5123l-.7439.736v7.338l.7439.735h23.0243l.744.735v9.543l-.744.735h-23.0243l-.7439.736v8.073l.7439.735h24.5123l.744.735v9.543zm51.998 0h-6.686l-1.488-.736-13.371-17.621h-.744l-13.372 17.621-1.483.736h-6.686l-.744-.736v-9.521l13.372-16.19v-.735l-12.628-13.933v-9.543l.744-.731h6.703l1.484.735 12.61 15.412h.744l12.614-15.416 1.501-.731h6.686l.744.735v9.539l-12.632 13.95v.718l13.372 16.19v9.543zm9.668 0h11.871l.757-.736v-49.918l-.739-.735h-11.889l-.739.731v49.922zm80.953 0h-11.88l-.744-.736v-23.493h-.744l-9.657 23.493-.744.736h-9.661l-.739-.736-9.662-23.493h-.739v23.493l-.744.736h-11.889l-.726-.736v-49.922l.726-.731h14.116l.744.735 13.372 33.037h.744l13.371-33.037.762-.735h14.116l.744.735v49.918zm103.24 0h-5.937l-.744-.736v-21.292l-.744-.731h-24.512l-.744.731v21.292l-.744.736h-5.942l-.744-.736v-49.922l.744-.731h5.942l.744.735v20.566l.744.735h24.512l.744-.735v-20.566l.744-.735h5.937l.744.735v49.918zm46.804 0h4.454l.744-.74v-5.141l-17.826-44.773-.744-.735h-6.686l-.744.731-17.831 44.777v5.145l.744.736h4.459l.74-.736 4.458-11.013 1.488-.735h20.08l1.483.735 4.428 11.013zm-17.1-40.38h.744l8.169 20.566-.744.731h-15.599l-.744-.731zm36.404 40.38h-5.942l-.739-.736v-49.922l.739-.731h5.942l.753.731v49.922zm47.544 0h6.681l.744-.736v-49.918l-.744-.735h-5.942l-.739.731v38.174h-.744l-25.238-38.174-1.506-.731h-6.686l-.744.731v49.922l.744.736h5.942l.744-.736v-38.173h.762l25.238 38.173z" fill="#fff" fill-rule="evenodd"/></svg>

<svg width="537" height="394" viewBox="0 0 537 394" fill="none" xmlns="http://www.w3.org/2000/svg">
<path d="M0 0H537V393.345H0V0Z" fill="#282A29"/>
<path fill-rule="evenodd" clip-rule="evenodd" d="M280.692 171C265.089 171 256.176 182.009 256.176 197.425C256.176 212.867 265.066 223.854 280.657 223.85C293.298 223.85 299.984 216.512 301.467 207.699L300.723 206.968H294.781L294.037 207.699C292.554 212.841 288.839 217.243 280.67 217.243C269.525 217.243 263.583 209.169 263.583 197.425C263.583 185.681 269.525 177.607 280.67 177.607C288.095 177.607 292.554 181.274 294.037 186.416L294.781 187.151H300.759L301.503 186.416C300.006 177.607 292.576 171 280.692 171ZM104.628 223.124H66.7439L66 222.388V172.466L66.7439 171.735H104.628L105.372 172.47V182.009L104.628 182.744H80.1157L79.3718 183.48V190.818L80.1157 191.553H103.14L103.884 192.288V201.831L103.14 202.566H80.1157L79.3718 203.302V211.375L80.1157 212.11H104.628L105.372 212.845V222.388L104.628 223.124ZM156.626 223.124H149.94L148.452 222.388L135.081 204.767H134.337L120.965 222.388L119.482 223.124H112.796L112.052 222.388V212.867L125.424 196.677V195.942L112.796 182.009V172.466L113.54 171.735H120.243L121.727 172.47L134.337 187.882H135.081L147.695 172.466L149.196 171.735H155.882L156.626 172.47V182.009L143.994 195.959V196.677L157.366 212.867V222.41L156.626 223.124ZM166.294 223.124H178.165L178.922 222.388V172.47L178.183 171.735H166.294L165.555 172.466V222.388L166.294 223.124ZM247.247 223.124H235.367L234.623 222.388V198.895H233.879L224.222 222.388L223.478 223.124H213.817L213.078 222.388L203.416 198.895H202.677V222.388L201.933 223.124H190.044L189.318 222.388V172.466L190.044 171.735H204.16L204.904 172.47L218.276 205.507H219.02L232.391 172.47L233.153 171.735H247.269L248.013 172.47V222.388L247.247 223.124ZM350.487 223.124H344.55L343.806 222.388V201.096L343.062 200.365H318.55L317.806 201.096V222.388L317.062 223.124H311.12L310.376 222.388V172.466L311.12 171.735H317.062L317.806 172.47V193.036L318.55 193.771H343.062L343.806 193.036V172.47L344.55 171.735H350.487L351.231 172.47V222.388L350.487 223.124ZM397.291 223.124H401.745L402.489 222.384V217.243L384.663 172.47L383.919 171.735H377.233L376.489 172.466L358.658 217.243V222.388L359.402 223.124H363.861L364.601 222.388L369.059 211.375L370.547 210.64H390.627L392.11 211.375L396.538 222.388L397.291 223.124ZM380.191 182.744H380.935L389.104 203.31L388.36 204.041H372.761L372.017 203.31L380.191 182.744ZM416.595 223.124H410.653L409.914 222.388V172.466L410.653 171.735H416.595L417.348 172.466V222.388L416.595 223.124ZM464.139 223.124H470.82L471.564 222.388V172.47L470.82 171.735H464.878L464.139 172.466V210.64H463.395L438.157 172.466L436.651 171.735H429.965L429.221 172.466V222.388L429.965 223.124H435.907L436.651 222.388V184.215H437.413L462.651 222.388L464.139 223.124Z" fill="white"/>
</svg>
